!!!COM: Scriabin, Alexander
!!!OTL@@FR: Flammes sombres
!!!OTL@@EN: Flammes sombres
!!!OPR@@FR: 2 Danses
!!!OPR@@EN: 2 Dances
!!!OPS: 73
!!!ONM: 2
!!!ODT: 1914
!!!AGN: Dance
**kern	**kern	**dynam
*staff2	*staff1	*staff1/2
*Ipiano	*Ipiano	*
*clefF4	*clefG2	*
*k[]	*k[]	*
*X:	*X:	*
*M2/4	*M6/8	*
=1	=1	=1
*Xtuplet	*Xtuplet	*
*	*^	*
16r	12dL	6g-X	.
16A\LL	.	.	.
.	12d-X	.	.
16E-X	.	.	.
.	12AJ	12dd-X	.
16FFJJ	.	.	.
16r	12g#XL	6.cc	.
16d#XLL	.	.	.
.	12gn	.	.
16A	.	.	.
.	12d#XJ	.	.
16BBJJ	.	.	.
=2	=2	=2	=2
16r	12dnL	6g-X	.
16A\LL	.	.	.
.	12d-X	.	.
16E-X	.	.	.
.	12AJ	12dd-X	.
16FFJJ	.	.	.
16r	12g#XL	6.cc	.
16d#XLL	.	.	.
.	12gn	.	.
16A	.	.	.
.	12d#XJ	.	.
16BBJJ	.	.	.
=3	=3	=3	=3
16r	12dnL	6g-X	.
16A\LL	.	.	.
.	12d-X	.	.
16E-X	.	.	.
.	12AJ	12dd-X	.
16FFJJ	.	.	.
16r	12bL	6.een	.
16f#XLL	.	.	.
.	12b-X	.	.
16c	.	.	.
.	12f#XJ	.	.
16DnJJ	.	.	.
=4	=4	=4	=4
16r	12fnL	6b--	.
16cLL	.	.	.
.	12f-X	.	.
16G-X	.	.	.
.	12cJ	12ff-X	.
16AA-XJJ	.	.	.
[4BBn [4Fn [4e-X [4an	[6.dd	[6.ggn	.
!!LO:LB:g=original
=5	=5	=5	=5
4BB] 4F] 4e-] 4a]	12ddL]	6.gg]	.
.	12dd-X	.	.
.	12aJ	.	.
4BB 4F 4e-X	12a-XL	6ree	.
.	12g	.	.
.	12e-XJ	12r	.
=6	=6	=6	=6
4FF 4E-X 4An	12dnL	6.g-X	.
.	12d-X	.	.
.	12AJ	.	.
4BBB 4FF#X 4D#X 4A	12dnL	6.fn	.
.	12c#X	.	.
.	12AJ	.	.
*	*v	*v	*
=7	=7	=7
*M6/8	*	*
*^	*	*
12BBL	6re	12r	.
12FFn	.	12r	.
12AJ	12re	[12d [12dd	.
12rAA	[6.G-X [6.g-X	6.d_ 6.dd_	.
12e-XL	.	.	.
12AJ	.	.	.
=8	=8	=8	=8
12BBL	6.G-] 6.g-]	6d] 6dd]	.
12FF	.	.	.
12AJ	.	[12d [12dd	.
12rAA	6.G- 6.g-	6d] 6dd]	.
12e-XL	.	.	.
12AJ	.	12c#X 12cc#X	.
*v	*v	*	*
=9	=9	=9
*M2/4	*	*
*^	*^	*
*	*^	*	*	*
16ryy	16r	8ryy	6r	6r	.
16BB\LL	[8.BB/	.	.	.	.
16F	.	[8F	.	.	.
.	.	.	12r	12r	.
[16e-XJJ	.	.	.	.	.
*	*v	*v	*	*	*
*v	*v	*	*	*
4e-_ 4BB_ 4F_	[6.a [6.dd	[6.ggn	.
!!LO:LB:g=original
=10	=10	=10	=10
2e-] 2BB] 2F]	12aL] 12dd]	6.gg]	.
.	12dd-X	.	.
.	12aJ	.	.
.	12a-XL	6ree	.
.	12g	.	.
.	12e-XJ	12ree	.
=11	=11	=11	=11
4FF 4E-X 4An	12dnL	6.g-X	.
.	12d-X	.	.
.	12AJ	.	.
4BBB 4FF#X 4D#X 4A	12dnL	6.fn	.
.	12c#X	.	.
.	12AJ	.	.
*	*v	*v	*
=12	=12	=12
*M6/8	*	*
*^	*	*
12BBL	6re	12r	.
12FFn	.	12r	.
12AJ	12re	[12d [12dd	.
12rAA	6.G-X 6.g-X	6.d_ 6.dd_	.
12e-XL	.	.	.
12AJ	.	.	.
=13	=13	=13	=13
12GGnL	6re	6d] 6dd]	.
12DD-X	.	.	.
12FJ	12re	[12e-- [12ee--	.
12rAA	6.A-X 6.a-X	12e--L] 12ee--]	.
12fL	.	12e-X 12ee-X	.
12c-XJ	.	12enJ 12een	.
*v	*v	*	*
=14	=14	=14
*M2/4	*	*
*^	*^	*
*	*^	*	*	*
16ryy	16r	8ryy	6r	6r	.
16C#\LL	[8.C#X/	.	.	.	.
16G	.	[8G	.	.	.
.	.	.	12r	12r	.
[16fJJ	.	.	.	.	.
*	*v	*v	*	*	*
*v	*v	*	*	*
4f_ 4C#_ 4G_	[6.b [6.ee	[6.aan	.
!!LO:LB:g=original
=15	=15	=15	=15
2f] 2C#] 2G]	12bL] 12ee]	6.aa]	.
.	12ee-X	.	.
.	12bJ	.	.
.	12b-XL	6raa	.
.	12a	.	.
.	12fJ	12raa	.
=16	=16	=16	=16
4GG 4F 4B	12enL	6.a-X	.
.	12e-X	.	.
.	12BJ	.	.
4CC#X 4GG#X 4E#X 4B	12enL	6.gn	.
.	12e-X	.	.
.	12BJ	.	.
*	*v	*v	*
=17	=17	=17
*M6/8	*	*
*^	*	*
12C#XL	6re	12r	.
12GGn	.	12r	.
12BJ	12rf	[12en [12een	.
12rAA	6.A-X 6.a-X	6.e_ 6.ee_	.
12fL	.	.	.
12BJ	.	.	.
=18	=18	=18	=18
12AAnL	6re	6e] 6ee]	.
12EE-X	.	.	.
12GJ	12re	[12f-X [12ff-X	.
12rAA	6.B-X 6.b-X	6f-] 6ff-]	.
12gL	.	.	.
12d-XJ	.	12fn 12ffn	.
!!LO:LB:g=original
=19	=19	=19	=19
12C#XL	6re	6r	.
12DD#X	.	.	.
12GJ	12re	[12f#X [12ff#X	.
12rAA	6.B-X 6.b-X	6.f#_ 6.ff#_	.
12gL	.	.	.
12c#XJ	.	.	.
=20	=20	=20	=20
12GL	6re	6f#] 6ff#]	.
12AA	.	.	.
12c#XJ	12rf	[12d#X [12dd#X	.
12rAA	6.B-X 6.b-X	6.d#_ 6.dd#_	.
12gL	.	.	.
12c#J	.	.	.
=21	=21	=21	=21
12C#XL	6re	6d#] 6dd#]	.
12DD#X	.	.	.
12GJ	12re	[12e [12ee	.
12rAA	6.B-X 6.b-X	6e] 6ee]	.
12gL	.	.	.
12c#XJ	.	[12f [12ff	.
=22	=22	=22	=22
12GL	6re	6f] 6ff]	.
12AA	.	.	.
12c#XJ	12rf	12f#X 12ff#X	.
6.Cn 6.F#X 6.e 6.b-X	6.d-X 6.dd-X	12aL 12aa	.
.	.	12a-X 12aa-X	.
.	.	12gJ 12gg	.
*v	*v	*	*
!!LO:LB:g=original
=23	=23	=23
*	*M2/4	*
*^	*	*
12D#XL	6re	8r	.
12AA	.	.	.
.	.	4f#X 4ff#X	.
12c#XJ	12rf	.	.
12rAA	6.B-X 6.b-X	.	.
12gL	.	.	.
.	.	8f# 8ff#	.
12c#J	.	.	.
=24	=24	=24	=24
12BB#XL	6re	8r	.
12FF#X	.	.	.
.	.	4f#X 4ff#X	.
12A#XJ	12re	.	.
12rAA	6.G 6.g	.	.
12eL	.	.	.
.	.	8f# 8ff#	.
12A#J	.	.	.
=25	=25	=25	=25
12D#XL	6re	8r	.
12AAn	.	.	.
.	.	4f#X 4ff#X	.
12c#XJ	12rf	.	.
12rAA	6.B-X 6.b-X	.	.
12gL	.	.	.
.	.	8f# 8ff#	.
12c#J	.	.	.
=26	=26	=26	=26
12F#XL	6re	8r	.
12Cn	.	.	.
.	.	8a 8aa	.
12eJ	12ra	.	.
12rAA	6.d-X 6.dd-X	8a-XL 8aa-X	.
12b-XL	.	.	.
.	.	8gJ 8gg	.
12eJ	.	.	.
*v	*v	*	*
=27	=27	=27
*M2/4	*	*
*^	*	*
16D#XLL	4rc	8r	.
16AA	.	.	.
16c#XJJ	.	4f#X 4ff#X	.
16rAA	.	.	.
16rAA	4B-X 4b-X	.	.
16gLL	.	.	.
16c#JJ	.	8f# 8ff#	.
16rAA	.	.	.
!!LO:LB:g=original
=28	=28	=28	=28
16BB#XLL	4rc	8r	.
16FF#X	.	.	.
16A#XJJ	.	4f#X 4ff#X	.
16rAA	.	.	.
16rAA	4G 4g	.	.
16eLL	.	.	.
16A#JJ	.	8f# 8ff#	.
16rAA	.	.	.
=29	=29	=29	=29
16D#XLL	4rc	8r	.
16AAn	.	.	.
16c#XJJ	.	4f#X 4ff#X	.
16rAA	.	.	.
16rAA	4B-X 4b-X	.	.
16gLL	.	.	.
16c#JJ	.	8f# 8ff#	.
16rAA	.	.	.
=30	=30	=30	=30
16F#XLL	4rc	8r	.
16Cn	.	.	.
16eJJ	.	8f#X 8ff#X	.
16rAA	.	.	.
16rAA	4d-X 4dd-X	8ff#L	.
16b-XLL	.	.	.
16enJJ	.	8ee-XJ	.
16rAA	.	.	.
*v	*v	*	*
=31	=31	=31
*	*^	*
!!LO:TX:a:t=[6/8 over 2/4]
*M2/4	*M2/4	*M6/8	*
16D#XLL 16B-X	8c#X 8g 8b-X	12r	.
16AAJJ	.	.	.
.	.	6f#X	.
8r	8r	.	.
16DD#XLL 16BB-X	8c# 8g 8b-	12r	.
16AAAJJ	.	.	.
.	.	6f#	.
8r	8r	.	.
=32	=32	=32	=32
16BB#XLL 16G	8A#X 8e 8g	12r	.
16FF#XJJ	.	.	.
.	.	6f	.
8r	8r	.	.
16BBB#XLL 16GG	8A# 8e 8g	12r	.
16FFF#XJJ	.	.	.
.	.	6f	.
8r	8r	.	.
!!LO:LB:g=original
=33	=33	=33	=33
16D#XLL 16B-X	8c#X 8g 8b-X	12r	.
16AAJJ	.	.	.
.	.	6f#X	.
8r	8r	.	.
16DD#XLL 16BB-X	8c# 8g 8b-	12r	.
16AAAJJ	.	.	.
.	.	6f#	.
8r	8r	.	.
=34	=34	=34	=34
16F#XLL 16d-X	8e 8b-X 8dd-X	12r	.
16CnJJ	.	.	.
.	.	6a	.
8r	8r	.	.
16FF#XLL 16D-X	8eL 8b- 8dd-	12a-L	.
16CCJJ	.	.	.
.	.	12gJ	.
8r	8r	.	.
.	.	12r	.
=35	=35	=35	=35
16D#XLL 16B-X	8c#XL 8g 8b-X	12r	.
16AAnJJ	.	.	.
.	.	12f#XL	.
8r	8r	.	.
.	.	12f#J	.
16DD#XLL 16BB-X	8c#L 8g 8b-	12r	.
16AAAJJ	.	.	.
.	.	12f#L	.
8r	8r	.	.
.	.	12f#J	.
=36	=36	=36	=36
16BB#XLL 16G	8A#XL 8e 8g	12r	.
16FF#XJJ	.	.	.
.	.	12f#XL	.
8r	8r	.	.
.	.	12f#J	.
16BBB#XLL 16GG	8A#L 8e 8g	12r	.
16FFF#XJJ	.	.	.
.	.	12f#L	.
8r	8r	.	.
.	.	12f#J	.
=37	=37	=37	=37
16D#XLL 16B-X	8c#XL 8g 8b-X	12r	.
16AAnJJ	.	.	.
.	.	12f#XL	.
8r	8r	.	.
.	.	12f#J	.
16DD#XLL 16BB-X	8c#L 8g 8b-	12r	.
16AAAJJ	.	.	.
.	.	12f#L	.
8r	8r	.	.
.	.	12f#J	.
!!LO:LB:g=original
=38	=38	=38	=38
16F#XLL 16d-X	8eL 8b-X 8dd-X	12r	.
16CnJJ	.	.	.
.	.	12aL	.
8r	8r	.	.
.	.	12aJ	.
16FF#XLL 16D-X	8eL 8b- 8dd-	12a-L	.
16CCJJ	.	.	.
.	.	12a-	.
8r	8r	.	.
.	.	12gJ	.
=39	=39	=39	=39
16D#XLL 16B-X	8c#XL 8g 8b-X	12r	.
16AAnJJ	.	.	.
.	.	12f#XL	.
8r	8r	.	.
.	.	12f#J	.
16DD#XLL 16BB-X	8c#L 8g 8b-	12r	.
16AAAJJ	.	.	.
.	.	12f#L	.
8r	8r	.	.
.	.	12f#J	.
=40	=40	=40	=40
16F#XLL 16d-X	8eL 8b-X 8dd-X	12r	.
16CnJJ	.	.	.
.	.	12aL	.
8r	8r	.	.
.	.	12aJ	.
16FF#XLL 16D-X	8eL 8b- 8dd-	12a-L	.
16CCJJ	.	.	.
.	.	12a-	.
8r	8r	.	.
.	.	12gJ	.
=41	=41	=41	=41
16D#XLL 16B-X	8c#XL 8g 8b-X	12r	.
16AAnJJ	.	.	.
.	.	12f#XL	.
8r	8r	.	.
.	.	12f#J	.
16DD#XLL 16BB-X	8c#L 8g 8b-	12r	.
16AAAJJ	.	.	.
.	.	12f#L	.
8r	8r	.	.
.	.	12f#J	.
=42	=42	=42	=42
16F#XLL 16d-X	8eL 8b-X 8dd-X	12r	.
16CnJJ	.	.	.
.	.	12aL	.
8r	8r	.	.
.	.	12aJ	.
16FF#XLL 16D-X	8eL 8b- 8dd-	12a-L	.
16CCJJ	.	.	.
.	.	12a-	.
8r	8r	.	.
.	.	12gJ	.
!!LO:LB:g=original
=43	=43	=43	=43
16D#XLL 16B-X	8c#XL 8g 8b-X	12r	.
16AAnJJ	.	.	.
.	.	12f#XL	.
8r	8r	.	.
.	.	12f#J	.
16DD#XLL 16BB-X	8c#L 8g 8b-	12r	.
16AAAJJ	.	.	.
.	.	12f#L	.
8r	8r	.	.
.	.	12f#J	.
=44	=44	=44	=44
16BBnLL 16F#X	8AL 8dn 8d#X 8f#X	12r	.
16EE#XJJ	.	.	.
.	.	12f#L	.
8r	8r	.	.
.	.	12f#J	.
16BBBLL 16FF#X	8AL 8dn 8d# 8f#	12r	.
16EEE#XJJ	.	.	.
.	.	12f#L	.
8r	8r	.	.
.	.	12f#J	.
=45	=45	=45	=45
16GG#XLL 16E-X	8F#XL 8c 8d 8e-X	12r	.
16DDnJJ	.	.	.
.	.	12f#XL	.
8r	8r	.	.
.	.	12f#J	.
*8ba	*	*	*
16GGG#XLL 16EE-X	8F#L 8c 8d 8e-	12r	.
16DDDJJ	.	.	.
*X8ba	*	*	*
.	.	12f#L	.
8r	8r	.	.
.	.	12f#J	.
=46	=46	=46	=46
16EE#XLL 16C	8D#XL 8A 8Bn 8c	12r	.
16BBBJJ	.	.	.
.	.	12f#XL	.
8r	8r	.	.
.	.	12f#J	.
*8ba	*	*	*
16EEE#XLL 16CC	8D#L 8A 8B 8c	12r	.
16BBBBJJ	.	.	.
*X8ba	*	*	*
.	.	12f#L	.
8r	8r	.	.
.	.	12f#J	.
=47	=47	=47	=47
2r	2r	12f#XL	.
.	.	12f#	.
.	.	12f#J	.
.	.	12f#L	.
.	.	12f#	.
.	.	12f#J	.
*	*v	*v	*
!!LO:LB:g=original
=48||	=48||	=48||
*	*M6/8	*
*	*^	*
16r	12dL	6g-X	.
16A\LL	.	.	.
.	12d-X	.	.
16E-X	.	.	.
.	12AJ	12dd-X	.
16FFnJJ	.	.	.
16r	12g#XL	6.cc	.
16d#XLL	.	.	.
.	12gn	.	.
16A	.	.	.
.	12d#XJ	.	.
16BBJJ	.	.	.
=49	=49	=49	=49
16r	12dnL	6g-X	.
16A\LL	.	.	.
.	12d-X	.	.
16E-X	.	.	.
.	12AJ	12dd-X	.
16FFJJ	.	.	.
16r	12g#XL	6.cc	.
16d#XLL	.	.	.
.	12gn	.	.
16A	.	.	.
.	12d#XJ	.	.
16BBJJ	.	.	.
=50	=50	=50	=50
16r	12BnL	6e-X	.
16A\LL	.	.	.
.	12B-X	.	.
16E-X	.	.	.
.	12AJ	12dd-X	.
16FFJJ	.	.	.
16r	12bL	6.een	.
16f#XLL	.	.	.
.	12b-X	.	.
16c	.	.	.
.	12f#XJ	.	.
16DJJ	.	.	.
=51	=51	=51	=51
16r	12fnL	6b--	.
16cLL	.	.	.
.	12f-X	.	.
16G-X	.	.	.
.	12cJ	12ff-X	.
16AA-XJJ	.	.	.
[4BBn [4Fn [4e-X	[6.an [6.dd	[6.ggn	.
=52	=52	=52	=52
2BB] 2F] 2e-]	12aL] 12dd]	6.gg]	.
.	12dd-X	.	.
.	12aJ	.	.
.	12a-XL	6ree	.
.	12g	.	.
.	12e-XJ	12ree	.
!!LO:LB:g=original
=53	=53	=53	=53
4FF 4E-X 4An	12dnL	6.g-X	.
.	12d-X	.	.
.	12AJ	.	.
4BBB 4FF#X 4D#X 4A	12dnL	6.fn	.
.	12c#X	.	.
.	12AJ	.	.
*	*v	*v	*
=54	=54	=54
*M6/8	*	*
*^	*	*
12EE#XL	6rc	6r	.
12BBB	.	.	.
12D#XJ	12rc	[12G#X [12g#X	.
12rDD	6.Cn 6.cn	6.G#_ 6.g#_	.
12AL	.	.	.
12D#J	.	.	.
=55	=55	=55	=55
12EE#XL	6rc	6G#] 6g#]	.
12BBB	.	.	.
12D#XJ	12rc	[12A [12a	.
12rDD	6.C 6.c	12A] 12a]	.
12AL	.	6c 6cc	.
12D#J	.	.	.
=56	=56	=56	=56
12AAL	6rc	12r	.
12BBB	.	12r	.
12E-XJ	12rc	[12dn [12ddn	.
12rDD	6.G-X 6.g-X	6.d_ 6.dd_	.
12e-XL	.	.	.
12AJ	.	.	.
=57	=57	=57	=57
12E-XL	6rc	6d] 6dd]	.
12FF	.	.	.
12AJ	12re	[12B [12b	.
12rDD	6.G-X 6.g-X	6.B_ 6.b_	.
12e-XL	.	.	.
12AJ	.	.	.
=58	=58	=58	=58
12AAL	6rc	6B] 6b]	.
12BBB	.	.	.
12E-XJ	12rc	[12c [12cc	.
12rDD	6.G-X 6.g-X	6c] 6cc]	.
12e-XL	.	.	.
12AJ	.	[12d-X [12dd-X	.
!!LO:LB:g=original
=59	=59	=59	=59
12E-XL	6rc	6d-] 6dd-]	.
12FF	.	.	.
12AJ	12re	12dn 12ddn	.
6.AA-X 6.D 6.c 6.g-X	6.B-- 6.b--	12fL 12ff	.
.	.	12f-X 12ff-X	.
.	.	12e-XJ 12ee-X	.
*v	*v	*	*
=60	=60	=60
*	*M2/4	*
*^	*	*
12BBnL	6rc	8r	.
12FFn	.	.	.
.	.	4d 4dd	.
12AnJ	12re	.	.
12rFF	6.G-X 6.g-X	.	.
12e-XL	.	.	.
.	.	8d 8dd	.
12AJ	.	.	.
=61	=61	=61	=61
12GG#XL	6rc	8r	.
12DD	.	.	.
.	.	4d 4dd	.
12F#XJ	12rc	.	.
12rFF	6.E-X 6.e-X	.	.
12cL	.	.	.
.	.	8d 8dd	.
12F#J	.	.	.
=62	=62	=62	=62
12BBL	6rc	8r	.
12FFn	.	.	.
.	.	4d 4dd	.
12AJ	12re	.	.
12rFF	6.G-X 6.g-X	.	.
12e-XL	.	.	.
.	.	8d 8dd	.
12AJ	.	.	.
=63	=63	=63	=63
12DL	6rc	8r	.
12AA-X	.	.	.
.	.	8f 8ff	.
12cJ	12rf	.	.
12rFF	6.B-- 6.b--	8f-XL 8ff-X	.
12g-XL	.	.	.
.	.	8e-XJ 8ee-X	.
12cJ	.	.	.
*v	*v	*	*
=64	=64	=64
*M2/4	*	*
*^	*	*
16BBnLL	4rc	8d 8dd	.
16FFn	.	.	.
16AnJJ	.	4d 4dd	.
16rFF	.	.	.
16rFF	4G-X 4g-X	.	.
16e-XLL	.	.	.
16AJJ	.	8d 8dd	.
16rFF	.	.	.
!!LO:LB:g=original
=65	=65	=65	=65
16GG#XLL	4rc	8r	.
16DD	.	.	.
16F#XJJ	.	4d 4dd	.
16rFF	.	.	.
16rFF	4E-X 4e-X	.	.
16cLL	.	.	.
16F#JJ	.	8d 8dd	.
16rFF	.	.	.
=66	=66	=66	=66
16BBLL	4rc	8r	.
16FFn	.	.	.
16AJJ	.	4d 4dd	.
16rFF	.	.	.
16rFF	4G-X 4g-X	.	.
16e-XLL	.	.	.
16AJJ	.	8d 8dd	.
16rFF	.	.	.
=67	=67	=67	=67
16DLL	4rc	8r	.
16AA-X	.	.	.
16cJJ	.	8d 8dd	.
16rFF	.	.	.
16rFF	4B-- 4b--	8dL 8dd	.
16g-XLL	.	.	.
16cJJ	.	8bnJ	.
16rFF	.	.	.
*v	*v	*	*
=68	=68	=68
*	*^	*
!!LO:TX:a:t=[6/8 over 2/4]
*	*M2/4	*M6/8	*
16BBnLL 16G-X	8An 8e-X 8g-X	12r	.
16FFJJ	.	.	.
.	.	6d	.
8r	8r	.	.
16BBBLL 16GG-X	8A 8e- 8g-	12r	.
16FFFJJ	.	.	.
.	.	6d	.
8r	8r	.	.
=69	=69	=69	=69
16GG#XLL 16E-X	8F#X 8c 8e-X	12r	.
16DDJJ	.	.	.
.	.	6d	.
8r	8r	.	.
16GGG#XLL 16EE-X	8F# 8c 8e-	12r	.
16DDDJJ	.	.	.
.	.	6d	.
8r	8r	.	.
=70	=70	=70	=70
16BBLL 16G-X	8A 8e-X 8g-X	12r	.
16FFJJ	.	.	.
.	.	6d	.
8r	8r	.	.
16BBBLL 16GG-X	8A 8e- 8g-	12r	.
16FFFJJ	.	.	.
.	.	6d	.
8r	8r	.	.
!!LO:LB:g=original
=71	=71	=71	=71
16DLL 16B--	8c 8g-X 8b--	12r	.
16AA-XJJ	.	.	.
.	.	6f	.
8r	8r	.	.
16DDLL 16BB--	8cL 8g- 8b--	12f-L	.
16AAA-XJJ	.	.	.
.	.	12e-XJ	.
8r	8r	.	.
.	.	12r	.
=72	=72	=72	=72
16BBnLL 16G-X	8AnL 8e-X 8g-X	12r	.
16FFJJ	.	.	.
.	.	12dL	.
8r	8r	.	.
.	.	12dJ	.
16BBBLL 16GG-X	8AL 8e- 8g-	12r	.
16FFFJJ	.	.	.
.	.	12dL	.
8r	8r	.	.
.	.	12dJ	.
=73	=73	=73	=73
16GG#XLL 16E-X	8F#XL 8c 8e-X	12r	.
16DDJJ	.	.	.
.	.	12dL	.
8r	8r	.	.
.	.	12dJ	.
16GGG#XLL 16EE-X	8F#L 8c 8e-	12r	.
16DDDJJ	.	.	.
.	.	12dL	.
8r	8r	.	.
.	.	12dJ	.
=74	=74	=74	=74
16BBLL 16G-X	8AL 8e-X 8g-X	12r	.
16FFJJ	.	.	.
.	.	12dL	.
8r	8r	.	.
.	.	12dJ	.
16BBBLL 16GG-X	8AL 8e- 8g-	12r	.
16FFFJJ	.	.	.
.	.	12dL	.
8r	8r	.	.
.	.	12dJ	.
=75	=75	=75	=75
16DLL 16B--	8cL 8g-X 8b--	12r	.
16AA-XJJ	.	.	.
.	.	12fL	.
8r	8r	.	.
.	.	12fJ	.
16DDLL 16BB--	8cL 8g- 8b--	12f-L	.
16AAA-XJJ	.	.	.
.	.	12f-	.
8r	8r	.	.
.	.	12e-XJ	.
=76	=76	=76	=76
16BBnLL 16G-X	8AnL 8e-X 8g-X	12r	.
16FFJJ	.	.	.
.	.	12dL	.
8r	8r	.	.
.	.	12dJ	.
16BBBLL 16GG-X	8AL 8e- 8g-	12r	.
16FFFJJ	.	.	.
.	.	12dL	.
8r	8r	.	.
.	.	12dJ	.
!!LO:LB:g=original
=77	=77	=77	=77
16DLL 16B--	8cL 8g-X 8b--	12r	.
16AA-XJJ	.	.	.
.	.	12fL	.
8r	8r	.	.
.	.	12fJ	.
16DDLL 16BB--	8cL 8g- 8b--	12f-L	.
16AAA-XJJ	.	.	.
.	.	12f-	.
8r	8r	.	.
.	.	12e-XJ	.
=78	=78	=78	=78
16BBnLL 16G-X	8AnL 8e-X 8g-X	12r	.
16FFnJJ	.	.	.
.	.	12dL	.
8r	8r	.	.
.	.	12dJ	.
16BBBLL 16GG-X	8AL 8e- 8g-	12r	.
16FFFJJ	.	.	.
.	.	12dL	.
8r	8r	.	.
.	.	12dJ	.
=79	=79	=79	=79
16DLL 16B--	8cL 8g-X 8b--	12r	.
16AA-XJJ	.	.	.
.	.	12fL	.
8r	8r	.	.
.	.	12fJ	.
16DDLL 16BB--	8cL 8g- 8b--	12f-L	.
16AAA-XJJ	.	.	.
.	.	12f-	.
8r	8r	.	.
.	.	12e-XJ	.
*	*v	*v	*
=80	=80	=80
2r	2r	.
=81	=81	=81
*	*M6/8	*
*	*^	*
4FFn 4E-X 4An	12dL	6g-X	.
.	12d-X	.	.
.	12AJ	12dd-X	.
*	*	*^	*
[4BB [4A 4d#X	12g#X\L	12ryy	[[6.cc	.
.	12g	[[6gn/	.	.
.	[12d#XJ	.	.	.
*	*	*v	*v	*
*	*v	*v	*
=82	=82	=82
2BB] 2A]	2d#] 2g]] 2cc]]	.
=83	=83	=83
2FFF 2FF 2E-X	2A 2dn 2g-X	.
==	==	==
*-	*-	*-
!!!system-decoration: {(*)}
!!!filter: flipper -a
!!!ENC: Bryan Jacob Bell
!!!END: November 2021 to April 2022
!!!PED: Günter Philipp
!!!PTL: Ausgewählte Klavierwerke (Edition Peters)
